images/services/services2.svg

<svg width="101" height="100" viewBox="0 0 101 100" fill="none" xmlns="http://www.w3.org/2000/svg">
<rect x="0.5" width="100" height="100" rx="50" fill="#EBEDEF"/>
<path d="M21 68H81" stroke="#F26600" stroke-width="2" stroke-miterlimit="10"/>
<path d="M40 49V38H27.64L23 48.22V50H26V52H23V55H40V49ZM38 53H36V50H38V53ZM38 46.5C38 46.8978 37.842 47.2794 37.5607 47.5607C37.2794 47.842 36.8978 48 36.5 48H27.76C27.5118 48.0001 27.2674 47.9387 27.0488 47.8212C26.8302 47.7036 26.6441 47.5337 26.5073 47.3265C26.3706 47.1194 26.2873 46.8815 26.2651 46.6343C26.2429 46.3871 26.2824 46.1382 26.38 45.91L28.95 39.91C29.0656 39.6398 29.258 39.4095 29.5033 39.2478C29.7487 39.086 30.0361 38.9998 30.33 39H36.5C36.8978 39 37.2794 39.158 37.5607 39.4393C37.842 39.7206 38 40.1022 38 40.5V46.5Z" fill="#F26600"/>
<path d="M34 63C34.5523 63 35 62.5523 35 62C35 61.4477 34.5523 61 34 61C33.4477 61 33 61.4477 33 62C33 62.5523 33.4477 63 34 63Z" fill="#F26600"/>
<path d="M28.52 46H36V41H30.66L28.52 46Z" fill="#F26600"/>
<path d="M50 49.56V49C50 47.9391 49.5786 46.9217 48.8284 46.1716C48.0783 45.4214 47.0609 45 46 45H45.59C44.6017 45.1018 43.6867 45.5678 43.0231 46.3072C42.3595 47.0466 41.9948 48.0065 42 49V55H50V49.56ZM46 52C45.4067 52 44.8266 51.8241 44.3333 51.4944C43.8399 51.1648 43.4554 50.6962 43.2284 50.148C43.0013 49.5999 42.9419 48.9967 43.0576 48.4147C43.1734 47.8328 43.4591 47.2982 43.8787 46.8787C44.2982 46.4591 44.8328 46.1734 45.4147 46.0576C45.9967 45.9419 46.5999 46.0013 47.148 46.2284C47.6962 46.4554 48.1648 46.8399 48.4944 47.3333C48.824 47.8266 49 48.4067 49 49C49 49.7956 48.6839 50.5587 48.1213 51.1213C47.5587 51.6839 46.7956 52 46 52Z" fill="#F26600"/>
<path d="M46 50C46.5523 50 47 49.5523 47 49C47 48.4477 46.5523 48 46 48C45.4477 48 45 48.4477 45 49C45 49.5523 45.4477 50 46 50Z" fill="#F26600"/>
<path d="M48.36 43.4799L48.54 43.5699L48.96 43.7899L49.16 43.9099L49.55 44.1799L49.72 44.2999C50.0971 44.5863 50.4336 44.9228 50.72 45.2999L50.85 45.4799C50.94 45.6099 51.03 45.7299 51.11 45.8699L51.23 46.0799C51.31 46.2199 51.38 46.3499 51.44 46.4899L51.53 46.6799C51.618 46.8822 51.6948 47.0892 51.76 47.2999L67.83 28.6999L66.3 27.1699L47.73 43.2499C47.9441 43.3148 48.1544 43.3916 48.36 43.4799Z" fill="#F26600"/>
<path d="M23 57V61H27.08C27.2914 59.4838 27.9939 58.0788 29.08 57H23Z" fill="#F26600"/>
<path d="M68 57C67.0111 57 66.0444 57.2932 65.2222 57.8427C64.3999 58.3921 63.759 59.173 63.3806 60.0866C63.0022 61.0002 62.9031 62.0055 63.0961 62.9755C63.289 63.9454 63.7652 64.8363 64.4645 65.5355C65.1637 66.2348 66.0546 66.711 67.0245 66.9039C67.9945 67.0969 68.9998 66.9978 69.9134 66.6194C70.8271 66.241 71.6079 65.6001 72.1574 64.7779C72.7068 63.9556 73 62.9889 73 62C73 60.6739 72.4732 59.4021 71.5355 58.4645C70.5979 57.5268 69.3261 57 68 57ZM68 65C67.4067 65 66.8266 64.8241 66.3333 64.4944C65.8399 64.1648 65.4554 63.6962 65.2284 63.148C65.0013 62.5999 64.9419 61.9967 65.0576 61.4147C65.1734 60.8328 65.4591 60.2982 65.8787 59.8787C66.2982 59.4591 66.8328 59.1734 67.4147 59.0576C67.9967 58.9419 68.5999 59.0013 69.1481 59.2284C69.6962 59.4554 70.1648 59.8399 70.4944 60.3333C70.8241 60.8266 71 61.4067 71 62C71 62.7956 70.6839 63.5587 70.1213 64.1213C69.5587 64.6839 68.7957 65 68 65Z" fill="#F26600"/>
<path d="M72.89 57C73.9761 58.0788 74.6787 59.4838 74.89 61H79V57H72.89Z" fill="#F26600"/>
<path d="M68 63C68.5523 63 69 62.5523 69 62C69 61.4477 68.5523 61 68 61C67.4477 61 67 61.4477 67 62C67 62.5523 67.4477 63 68 63Z" fill="#F26600"/>
<path d="M52 57H38.89C39.9761 58.0788 40.6787 59.4838 40.89 61H61.08C61.2914 59.4838 61.9939 58.0788 63.08 57H52Z" fill="#F26600"/>
<path d="M34 57C33.0111 57 32.0444 57.2932 31.2222 57.8427C30.3999 58.3921 29.759 59.173 29.3806 60.0866C29.0022 61.0002 28.9031 62.0055 29.0961 62.9755C29.289 63.9454 29.7652 64.8363 30.4645 65.5355C31.1637 66.2348 32.0546 66.711 33.0246 66.9039C33.9945 67.0969 34.9998 66.9978 35.9134 66.6194C36.8271 66.241 37.6079 65.6001 38.1574 64.7779C38.7068 63.9556 39 62.9889 39 62C39 60.6739 38.4732 59.4021 37.5355 58.4645C36.5979 57.5268 35.3261 57 34 57ZM34 65C33.4067 65 32.8266 64.8241 32.3333 64.4944C31.8399 64.1648 31.4554 63.6962 31.2284 63.148C31.0013 62.5999 30.9419 61.9967 31.0576 61.4147C31.1734 60.8328 31.4591 60.2982 31.8787 59.8787C32.2982 59.4591 32.8328 59.1734 33.4147 59.0576C33.9967 58.9419 34.5999 59.0013 35.1481 59.2284C35.6962 59.4554 36.1648 59.8399 36.4944 60.3333C36.8241 60.8266 37 61.4067 37 62C37 62.7956 36.6839 63.5587 36.1213 64.1213C35.5587 64.6839 34.7957 65 34 65Z" fill="#F26600"/>
<path d="M72 42C71.7348 42 71.4804 42.1054 71.2929 42.2929C71.1053 42.4804 71 42.7348 71 43C71 43.3956 70.8827 43.7822 70.6629 44.1111C70.4432 44.44 70.1308 44.6964 69.7653 44.8478C69.3999 44.9991 68.9978 45.0387 68.6098 44.9616C68.2218 44.8844 67.8655 44.6939 67.5858 44.4142C67.3061 44.1345 67.1156 43.7781 67.0384 43.3902C66.9612 43.0022 67.0008 42.6001 67.1522 42.2346C67.3036 41.8692 67.5599 41.5568 67.8888 41.3371C68.2177 41.1173 68.6044 41 69 41C69.2652 41 69.5196 40.8946 69.7071 40.7071C69.8946 40.5196 70 40.2652 70 40V31C70 30.7348 69.8946 30.4804 69.7071 30.2929C69.5196 30.1054 69.2652 30 69 30C68.7348 30 68.4804 30.1054 68.2929 30.2929C68.1053 30.4804 68 30.7348 68 31V39.14C67.2751 39.3272 66.6172 39.714 66.1013 40.2566C65.5854 40.7991 65.2321 41.4756 65.0816 42.209C64.9312 42.9424 64.9895 43.7033 65.2501 44.4052C65.5107 45.1071 65.963 45.7217 66.5557 46.1792C67.1483 46.6367 67.8574 46.9187 68.6024 46.9932C69.3474 47.0676 70.0983 46.9314 70.7697 46.6002C71.4411 46.269 72.0061 45.7559 72.4004 45.1195C72.7947 44.483 73.0024 43.7487 73 43C73 42.7348 72.8946 42.4804 72.7071 42.2929C72.5196 42.1054 72.2652 42 72 42Z" fill="#F26600"/>
</svg>

<svg width="101" height="100" fill="none" xmlns="http://www.w3.org/2000/svg"><rect x=".5" width="100" height="100" rx="50" fill="#EBEDEF"/><path d="M21 68h60" stroke="#F26600" stroke-width="2" stroke-miterlimit="10"/><path d="M40 49V38H27.64L23 48.22V50h3v2h-3v3h17v-6Zm-2 4h-2v-3h2v3Zm0-6.5a1.5 1.5 0 0 1-1.5 1.5h-8.74a1.5 1.5 0 0 1-1.38-2.09l2.57-6a1.5 1.5 0 0 1 1.38-.91h6.17a1.5 1.5 0 0 1 1.5 1.5v6ZM34 63a1 1 0 1 0 0-2 1 1 0 0 0 0 2Z" fill="#F26600"/><path d="M28.52 46H36v-5h-5.34l-2.14 5ZM50 49.56V49a4 4 0 0 0-4-4h-.41A4 4 0 0 0 42 49v6h8v-5.44ZM46 52a3 3 0 1 1 0-5.999A3 3 0 0 1 46 52Z" fill="#F26600"/><path d="M46 50a1 1 0 1 0 0-2 1 1 0 0 0 0 2ZM48.36 43.48l.18.09.42.22.2.12.39.27.17.12c.377.286.714.623 1 1l.13.18c.09.13.18.25.26.39l.12.21c.08.14.15.27.21.41l.09.19c.088.202.165.41.23.62l16.07-18.6-1.53-1.53-18.57 16.08c.214.065.424.142.63.23ZM23 57v4h4.08a7 7 0 0 1 2-4H23ZM68 57a4.999 4.999 0 1 0 0 9.998A4.999 4.999 0 0 0 68 57Zm0 8a3 3 0 1 1 0-5.999A3 3 0 0 1 68 65ZM72.89 57a7 7 0 0 1 2 4H79v-4h-6.11Z" fill="#F26600"/><path d="M68 63a1 1 0 1 0 0-2 1 1 0 0 0 0 2ZM52 57H38.89a7 7 0 0 1 2 4h20.19a7 7 0 0 1 2-4H52ZM34 57a4.999 4.999 0 1 0 0 9.998A4.999 4.999 0 0 0 34 57Zm0 8a3 3 0 1 1 0-5.999A3 3 0 0 1 34 65ZM72 42a1 1 0 0 0-1 1 2 2 0 1 1-2-2 1 1 0 0 0 1-1v-9a1 1 0 0 0-2 0v8.14A4 4 0 1 0 73 43a1 1 0 0 0-1-1Z" fill="#F26600"/></svg>
